!!!COM: Honegger, Arthur
!!!OTL: Suite archaïque (Archaic Suite) for Orchestra
!!!OMV: II: Pantomime
!!!example: 610
!!!work: Hon-43
**kern	**kern	**kern	**kern	**kern	**kern	**kern	**kern	**kern
*part11	*part10	*part9	*part8	*part7	*part6	*part5	*part2	*part1
*staff11	*staff10	*staff9	*staff8	*staff7	*staff6	*staff5	*staff2	*staff1
*I"Contrabass	*I"Violoncello	*I"Viola	*I"Violin II	*I"Violin I	*I"Trombone	*I"Trumpet in Bb	*I"Oboe	*I"Flute
*I'Cb.	*I'Vc.	*I'Vla.	*I'Vln. II	*I'Vln. I	*I'Tbn.	*I'Tpt.	*I'Ob.	*I'Fl.
*clefF4	*clefF4	*clefC3	*clefG2	*clefG2	*clefF4	*clefG2	*clefG2	*clefG2
*k[]	*k[]	*k[]	*k[]	*k[]	*k[]	*k[]	*k[]	*k[]
*	*	*	*	*	*	*	*	*
*M3/8	*M3/8	*M3/8	*M3/8	*M3/8	*M3/8	*M3/8	*M3/8	*M3/8
*MM121	*MM121	*MM121	*MM121	*MM121	*MM121	*MM121	*MM121	*MM121
=1	=1	=1	=1	=1	=1	=1	=1	=1
8GG#XL	8G#XL	8r	8dd#X	8ddd#X	[4.B	[4.e [4.a	4.r	4.r
8DD#XJ	8D#XJ	8G#X	8r	8r	.	.	.	.
8r	8r	8r	8g#X	8gg#X	.	.	.	.
=2	=2	=2	=2	=2	=2	=2	=2	=2
8GGG#X	8GG#X	8d#X	8r	8r	8B]	8e] 8a]	4.r	4.r
8r	8r	8r	8dd#X	8ddd#X	8r	8r	.	.
8r	8D#X	8r	8r	8r	8B	[16e-X'LL [16a	.	.
.	.	.	.	.	.	16e-'JJ] 16a]	.	.
=3	=3	=3	=3	=3	=3	=3	=3	=3
8GGn	8G#XL	8r	8r	8r	[4.B	[4.e-X [4.a	4.r	(4dd#X
8r	8D#XJ	8g#XL	8r	8r	.	.	.	.
8r	8r	8d#XJ	8gg#X	8ggg#X	.	.	.	8b
=4	=4	=4	=4	=4	=4	=4	=4	=4
4.r	8GG#X	8r	8dd#X	8ddd#X	4.B_	4.e-_ 4.a_	4.r	4dd#X
.	8r	8G#X	8r	8r	.	.	.	.
.	8D#X	8r	8g#X	8gg#X	.	.	.	8ee
=5	=5	=5	=5	=5	=5	=5	=5	=5
4.r	8r	8d#X	8r	8r	4.B_	4.e-_ 4.a_	4.r	4ff#X
.	8G#XL	8r	8dd#X	8ddd#X	.	.	.	.
.	8D#XJ	8g#X	8r	8r	.	.	.	8gg#X
=6	=6	=6	=6	=6	=6	=6	=6	=6
4.r	8r	8d#X	8gg#XL	8ggg#XL	4.B]	4.e-] 4.a]	4.r	8ff#XL
.	8r	8r	8dd#XJ	8ddd#XJ	.	.	.	8ee
.	8r	8r	8r	8r	.	.	.	8dd#XJ)
=7	=7	=7	=7	=7	=7	=7	=7	=7
4CC#X	8C#XL	8r	8g#X	8gg#X	[4.B	[4.e-X [4.a-X	4.r	(8ee
.	8GG#XJ	8cc#XL	8r	8r	.	.	.	[4bb
8r	8r	8g#XJ	8cc#X	8ccc#X	.	.	.	.
=8	=8	=8	=8	=8	=8	=8	=8	=8
4.r	8CC#X	8r	8g#X	8gg#X	4.B_	4.e-_ 4.a-_	4.r	8bbL]
.	8r	8c#X	8r	8r	.	.	.	8aa#X
.	8GG#X	8r	8c#X	8cc#X	.	.	.	8gg#XJ
=9	=9	=9	=9	=9	=9	=9	=9	=9
4.r	8r	8g#X	8r	8r	4.B_	4.e-_ 4.a-_	4.r	4ff#X
.	8C#XL	8r	8g#X	8gg#X	.	.	.	.
.	8GG#XJ	8cc#X	8r	8r	.	.	.	16gg#XLL
.	.	.	.	.	.	.	.	16ff#JJ
=10	=10	=10	=10	=10	=10	=10	=10	=10
4.r	8r	8g#X	8dd#XL	8ddd#XL	4B]	4e-] 4a-]	(4dd#X	4dd#X)
.	8C#X	8r	8g#XJ	8gg#XJ	.	.	.	.
.	8r	8cc#X	8r	8r	8r	8r	8ee	8r
=11	=11	=11	=11	=11	=11	=11	=11	=11
4GGn	8G#XL	8r	8ddd#X	8ddd#X	[4.B	4.e-X [4.a-X	4dd#X	4.r
.	8D#XJ	8g#XL	8r	8r	.	.	.	.
8r	8r	8d#XJ	8gg#X	8ggg#X	.	.	8b	.
=12	=12	=12	=12	=12	=12	=12	=12	=12
4.r	8GG#X	8r	8ddd#X	8ddd#X	4.B_	4.e-X 4.a-_	4dd#X	4.r
.	8r	8Gn	8r	8r	.	.	.	.
.	8D#X	8r	8gg#X	8gg#X	.	.	8ee	.
=13	=13	=13	=13	=13	=13	=13	=13	=13
4.r	8r	8d#X	8r	8r	4.B_	4.e-X 4.a-_	8ff#XL	4.r
.	8C#XL	8r	8ddd#X	8ddd#X	.	.	8ggn	.
.	8GG#XJ	8c#X	8r	8r	.	.	8ff#J	.
=14	=14	=14	=14	=14	=14	=14	=14	=14
4.r	8r	8G#X	8ccc#XL	8ccc#XL	8B]	8e-X 8a-]	4ee	4.r
.	8C#X	8r	8gg#XJ	8gg#XJ	8r	8r	.	.
.	8r	8c#X	8r	8r	8B'	16e-LL 16a-X	8ff#X	.
.	.	.	.	.	.	16e-JJ 16a-	.	.
=15	=15	=15	=15	=15	=15	=15	=15	=15
4FFFn	8F#XL	8r	8ccc#X	8ccc#X	[4.A	4.en [4.g#X	4dd#X)	(8gg#XL
.	8C#XJ	8f#XL	8r	8r	.	.	.	8dd#X
8r	8r	8c#XJ	8ff#X	8fff#X	.	.	8r	8bJ
=16	=16	=16	=16	=16	=16	=16	=16	=16
4.r	8FF#X	8r	8ccc#X	8ccc#X	4.A_	4.e 4.g#_	4.r	8cc#XL
.	8r	8F#X	8r	8r	.	.	.	8dd#X
.	8C#X	8r	8ff#X	8ff#X	.	.	.	8eeJ
=17	=17	=17	=17	=17	=17	=17	=17	=17
4.r	8r	8c#X	8r	8r	4.A_	4.e 4.g#_	4.r	8ff#XL
.	8FF#XL	8r	8ccc#X	8ccc#X	.	.	.	8gg#X
.	8CC#XJ	8f#X	8r	8r	.	.	.	8aaJ
=18	=18	=18	=18	=18	=18	=18	=18	=18
4.r	8r	8c#X	8ff#XL	8ff#XL	4.A_	4e 4g#]	4.r	8gg#XL
.	8FF#X	8r	8cc#XJ	8cc#XJ	.	.	.	8bb
.	8r	8f#X	8r	8r	.	8r	.	8aaJ
=19	=19	=19	=19	=19	=19	=19	=19	=19
4BBB	8BBL	8r	8ff#X	8ff#X	4.A]	4.dn 4.g#X	4gg#X	4gg#X')
.	8FF#XJ	8bL	8r	8r	.	.	.	.
8r	8r	8f#XJ	8bb	8bb	.	.	8ff#X	8r
=	=	=	=	=	=	=	=	=
*-	*-	*-	*-	*-	*-	*-	*-	*-
!!!system-decoration: [(s1,s2,s3,s4)][(s5,s6)][(s7,s8,s9,s10,s11)]
!!!YEM:	Copyright © Natalie
!!!CDT: 1892/03/10-1955/11/27
!!!CBL: Le Havre, France
!!!CDL: Paris, France
!!!CNT: Swiss, French
!!!AGN: Orchestral; Symphonic
!!!MCN: Whitney, Robert
!!!MDT: 1951/02/28
!!!MGN: Louisville Symphony Orchestra
!!!MLC: Louisville, Kentucky, United States of America
!!!MPD: 1951
!!!MPN:
!!!ODT: 1951
!!!PDT: 1951
!!!excerpt-start-measure:
!!!excerpt-end-measure:
!!!excerpt-start-time: 0:57
!!!excerpt-end-time: 1:12
!!!EEV: 2020/01/22
!!!ONB: Converted from MusicXML on 2020/01/22
